X:81
T:Shamboy
M:6/8
L:1/8
B:Thompson's Compleat Collection of 200 Favourite Country Dances, vol. 1 (London, 1757)
Z:Transcribed and edited by Fynnian Titford-Mock, 2007
Z:abc's:AK/Fiddler's Companion
K:G
G2d dBd|(e/f/g)B "tr"A2G|G2d dBd|e3 g3|G2d dBd|(e/f/g)B "tr"A2G|(g/a/b)g (f/g/a)f|e3 g3:|
|:(g/a/b)g (f/g/a)f|(e/f/g)B "tr"A2G|(g/a/b)g (f/g/a)f|e3 g3|(g/a/b)g (f/g/a)f|(e/f/g)B "tr"A2G|G2d dBd|e3 g3:|

